X:206
T:Hurricane Sunset 2.tef
C:
N:Transcribed by Doug Jernigan
R:bluegrass
L:1/8
Q:1/4=150
M:12/8
K:F
z< | "Dm"D_D/=DE/ FE/FG/ AG/FE/ DC/B,A,/ | D_D/=DE/ FE/FG/ AG/FE/ D3 | "Gm"G_G/=GA/ BA/Bc/ dc/BA/ GF/_ED/ | 
G_G/=GA/ BA/Bc/ dc/BA/ G3 | "A"A_A/=A=B/ _dB/d=d/ ed/_dB/ AE/_GA/ | "Gm"G_G/=GA/ BA/Bc/ dc/BA/ G3 | 
"Dm"D_D/=DE/ FD/EF/ "Gm"G_G/=GA/ BG/AB/ | "Dm"AG/FA/ "A"GF/EF/ "Dm"DA,/DE/ FE/D_D/ | 
D_D/=DE/ FE/FG/ AG/FE/ DC/B,A,/ | D_D/=DE/ FE/FG/ AG/FE/ D3 | "Gm"G_G/=GA/ BA/Bc/ dc/BA/ GF/_ED/ | 
G_G/=GA/ BA/Bc/ dc/BA/ G3 | "A"A_A/=A=B/ _dB/d=d/ ed/_dB/ AE/_GA/ | "Gm"G_G/=GA/ BA/Bc/ dc/BA/ G3 | 
"Dm"D_D/=DE/ FD/EF/ "Gm"G_G/=GA/ BG/AB/ | "Dm"AG/FA/ "A"GF/EF/ "D"DE/_G=G/ A_G/=GA/ | 
|: "Gm"BA/GA/ BA/GA/ BA/GA/ BG/AB/ | "Dm"AG/FG/ AG/FG/ AG/FG/ A3/2F3/2 | "Gm"BA/GA/ BA/GA/ BA/GA/ BG/AB/ | 
|1 _d=B/AB/ dB/AB/ dB/AB/ d3/2A3/2 :|2 =BA/_A=A/ B_A/=AB/ "A"A_A/G_G/ "A7"E_D/=DE/ | 
D"Dm"_D/=DE/ FD/EF/ "Gm"G_G/=GA/ BG/AB/ | "Dm"AG/FA/ "A"GF/EF/ "D"DE/_G=G/ A=B/_dA/ | 
|: "Bb"dc/BA/ GA/Bc/ dc/BA/ GA/Bd/ | "F"cB/AG/ FG/AB/ cB/AG/ FG/Ac/ | "C"BA/GF/ EF/GA/ BA/GF/ EF/GB/ | 
|1 AG/FE/ DE/FG/ "D"AG/_GE/ DG/Ac/ :|2 =BA/_A_G/ EG/AB/ "A7"_dB/=A_A/ =AB/dA/ | 
"Dm"d_d/=de/ fe/fg/ ag/fe/ dc/BA/ | d_d/=de/ fe/fg/ ag/fe/ d3 | "Gm"g_g/=ga/ ba/bc'/ d'c'/ba/ gf/_ed/ | 
g_g/=ga/ ba/bc'/ d'c'/ba/ g3 | "A"a_a/=a=b/ _d'b/d'=d'/ e'd'/_d'b/ ae/_ga/ | "Gm"g_g/=ga/ ba/bc'/ d'c'/ba/ g3 | 
"Dm"d_d/=de/ fd/ef/ "Gm"g_g/=ga/ bg/ab/ | "Dm"ag/fa/ "A"gf/ef/ "D"dA/d_d/ cA/_GA/ | 
"Dm"AG/FA/ "A"GF/EF/ "Dm"D6 | z< | 


